X: 33742
T: Rattigan's
R: reel
M: 4/4
K: Gmajor
FF2|:GABA GABG|ggfg edBA|GABA GABA|ABAG FDEF|
BG~G2 EGDE|~G2g2 edBA|GABA GABA|1 AGFA G2 F2:|2 AGFA GABc||
dggf gfed|eaag agef|gded gded|eg~g2 gfed|
BG~G2 EGDE|~G2g2 edBA GABA GABA|1 AGFA GABc:|2 AGFA G2 F2||

